img/icons/facebook-icon.svg

<svg width="12" height="21" viewBox="0 0 12 21" fill="none" xmlns="http://www.w3.org/2000/svg">
<path d="M3.70369 11.7917C3.62833 11.7917 2.04745 11.7922 1.31833 11.7914C0.942968 11.7912 0.809048 11.6507 0.809048 11.2572C0.808568 10.2464 0.808328 9.23565 0.809048 8.2249C0.809288 7.8364 0.950888 7.68815 1.32145 7.6879C2.05057 7.6874 3.62281 7.68765 3.70369 7.68765C3.70369 7.6184 3.70345 6.15915 3.70369 5.48715C3.70417 4.49365 3.87433 3.54265 4.35889 2.6719C4.85497 1.78065 5.57689 1.17015 6.50209 0.817154C7.09465 0.590904 7.70977 0.500654 8.33857 0.500154C9.12529 0.499654 9.91201 0.500404 10.699 0.501904C11.0371 0.502404 11.1871 0.658154 11.1878 1.0129C11.1893 1.96365 11.1893 2.9144 11.1878 3.8649C11.1874 4.2234 11.0436 4.3674 10.6978 4.3714C10.0529 4.37865 9.40753 4.37415 8.76337 4.40115C8.11273 4.40115 7.77049 4.73215 7.77049 5.43365C7.75489 6.17565 7.76401 6.9184 7.76401 7.6874C7.82497 7.6874 9.67657 7.68715 10.542 7.6874C10.9351 7.6874 11.0695 7.82815 11.0695 8.2399C11.0695 9.24515 11.0693 10.2507 11.0686 11.2559C11.0683 11.6617 10.9421 11.7912 10.5466 11.7914C9.68113 11.7919 7.83673 11.7917 7.75609 11.7917V19.9279C7.75609 20.3617 7.62505 20.4999 7.21417 20.4999C6.21241 20.4999 5.21041 20.5002 4.20865 20.4999C3.84553 20.4999 3.70393 20.3529 3.70393 19.9747C3.70369 17.3249 3.70369 11.8847 3.70369 11.7917Z" fill="#3D6AD6"/>
</svg>

<svg width="12" height="21" fill="none" xmlns="http://www.w3.org/2000/svg"><path d="M3.704 11.792H1.318c-.375 0-.509-.141-.509-.535V8.225c0-.389.142-.537.512-.537h2.383v-2.2c0-.994.17-1.945.655-2.816A4.022 4.022 0 016.502.817 5.107 5.107 0 018.34.5c.786 0 1.573 0 2.36.002.338 0 .488.156.489.51v2.853c0 .358-.144.502-.49.506-.645.008-1.29.003-1.935.03-.65 0-.993.331-.993 1.033-.015.742-.006 1.484-.006 2.253h2.778c.393 0 .527.141.527.553v3.016c0 .406-.127.535-.522.535h-2.79v8.137c0 .434-.132.572-.543.572H4.21c-.363 0-.505-.147-.505-.525v-8.183z" fill="#3D6AD6"/></svg>
